app/src/assets/luts/standard_warm.3dl
#Created by: Adobe Photoshop Export Color Lookup Plugin
#Description: 3d-garden-screenshot-1748162883752.png
0 68 136 205 273 341 409 477 546 614 682 750 818 887 955 1023
0 0 0
0 0 275
0 0 576
0 0 930
0 0 1363
0 0 1869
0 0 2377
0 0 2815
0 0 3166
0 0 3441
0 0 3650
0 0 3804
0 0 3915
0 0 3993
0 0 4050
0 0 4095
0 275 0
0 275 275
0 275 576
0 275 930
0 275 1363
0 275 1869
0 275 2377
0 275 2815
0 275 3166
0 275 3441
0 275 3650
0 275 3804
0 275 3915
0 275 3993
0 275 4050
0 275 4095
0 576 0
0 576 275
0 576 576
0 576 930
0 576 1363
0 576 1869
0 576 2377
0 576 2815
0 576 3166
0 576 3441
0 576 3650
0 576 3804
0 576 3915
0 576 3993
0 576 4050
0 576 4095
0 930 0
0 930 275
0 930 576
0 930 930
0 930 1363
0 930 1869
0 930 2377
0 930 2815
0 930 3166
0 930 3441
0 930 3650
0 930 3804
0 930 3915
0 930 3993
0 930 4050
0 930 4095
0 1363 0
0 1363 275
0 1363 576
0 1363 930
0 1363 1363
0 1363 1869
0 1363 2377
0 1363 2815
0 1363 3166
0 1363 3441
0 1363 3650
0 1363 3804
0 1363 3915
0 1363 3993
0 1363 4050
0 1363 4095
0 1869 0
0 1869 275
0 1869 576
0 1869 930
0 1869 1363
0 1869 1869
0 1869 2377
0 1869 2815
0 1869 3166
0 1869 3441
0 1869 3650
0 1869 3804
0 1869 3915
0 1869 3993
0 1869 4050
0 1869 4095
0 2377 0
0 2377 275
0 2377 576
0 2377 930
0 2377 1363
0 2377 1869
0 2377 2377
0 2377 2815
0 2377 3166
0 2377 3441
0 2377 3650
0 2377 3804
0 2377 3915
0 2377 3993
0 2377 4050
0 2377 4095
0 2815 0
0 2815 275
0 2815 576
0 2815 930
0 2815 1363
0 2815 1869
0 2815 2377
0 2815 2815
0 2815 3166
0 2815 3441
0 2815 3650
0 2815 3804
0 2815 3915
0 2815 3993
0 2815 4050
0 2815 4095
0 3166 0
0 3166 275
0 3166 576
0 3166 930
0 3166 1363
0 3166 1869
0 3166 2377
0 3166 2815
0 3166 3166
0 3166 3441
0 3166 3650
0 3166 3804
0 3166 3915
0 3166 3993
0 3166 4050
0 3166 4095
0 3441 0
0 3441 275
0 3441 576
0 3441 930
0 3441 1363
0 3441 1869
0 3441 2377
0 3441 2815
0 3441 3166
0 3441 3441
0 3441 3650
0 3441 3804
0 3441 3915
0 3441 3993
0 3441 4050
0 3441 4095
0 3650 0
0 3650 275
0 3650 576
0 3650 930
0 3650 1363
0 3650 1869
0 3650 2377
0 3650 2815
0 3650 3166
0 3650 3441
0 3650 3650
0 3650 3804
0 3650 3915
0 3650 3993
0 3650 4050
0 3650 4095
0 3804 0
0 3804 275
0 3804 576
0 3804 930
0 3804 1363
0 3804 1869
0 3804 2377
0 3804 2815
0 3804 3166
0 3804 3441
0 3804 3650
0 3804 3804
0 3804 3915
0 3804 3993
0 3804 4050
0 3804 4095
0 3915 0
0 3915 275
0 3915 576
0 3915 930
0 3915 1363
0 3915 1869
0 3915 2377
0 3915 2815
0 3915 3166
0 3915 3441
0 3915 3650
0 3915 3804
0 3915 3915
0 3915 3993
0 3915 4050
0 3915 4095
0 3993 0
0 3993 275
0 3993 576
0 3993 930
0 3993 1363
0 3993 1869
0 3993 2377
0 3993 2815
0 3993 3166
0 3993 3441
0 3993 3650
0 3993 3804
0 3993 3915
0 3993 3993
0 3993 4050
0 3993 4095
0 4050 0
0 4050 275
0 4050 576
0 4050 930
0 4050 1363
0 4050 1869
0 4050 2377
0 4050 2815
0 4050 3166
0 4050 3441
0 4050 3650
0 4050 3804
0 4050 3915
0 4050 3993
0 4050 4050
0 4050 4095
0 4095 0
0 4095 275
0 4095 576
0 4095 930
0 4095 1363
0 4095 1869
0 4095 2377
0 4095 2815
0 4095 3166
0 4095 3441
0 4095 3650
0 4095 3804
0 4095 3915
0 4095 3993
0 4095 4050
0 4095 4095
330 0 0
330 0 275
330 0 576
330 0 930
330 0 1363
330 0 1869
330 0 2377
330 0 2815
330 0 3166
330 0 3441
330 0 3650
330 0 3804
330 0 3915
330 0 3993
330 0 4050
330 0 4095
330 275 0
330 275 275
330 275 576
330 275 930
330 275 1363
330 275 1869
330 275 2377
330 275 2815
330 275 3166
330 275 3441
330 275 3650
330 275 3804
330 275 3915
330 275 3993
330 275 4050
330 275 4095
330 576 0
330 576 275
330 576 576
330 576 930
330 576 1363
330 576 1869
330 576 2377
330 576 2815
330 576 3166
330 576 3441
330 576 3650
330 576 3804
330 576 3915
330 576 3993
330 576 4050
330 576 4095
330 930 0
330 930 275
330 930 576
330 930 930
330 930 1363
330 930 1869
330 930 2377
330 930 2815
330 930 3166
330 930 3441
330 930 3650
330 930 3804
330 930 3915
330 930 3993
330 930 4050
330 930 4095
330 1363 0
330 1363 275
330 1363 576
330 1363 930
330 1363 1363
330 1363 1869
330 1363 2377
330 1363 2815
330 1363 3166
330 1363 3441
330 1363 3650
330 1363 3804
330 1363 3915
330 1363 3993
330 1363 4050
330 1363 4095
330 1869 0
330 1869 275
330 1869 576
330 1869 930
330 1869 1363
330 1869 1869
330 1869 2377
330 1869 2815
330 1869 3166
330 1869 3441
330 1869 3650
330 1869 3804
330 1869 3915
330 1869 3993
330 1869 4050
330 1869 4095
330 2377 0
330 2377 275
330 2377 576
330 2377 930
330 2377 1363
330 2377 1869
330 2377 2377
330 2377 2815
330 2377 3166
330 2377 3441
330 2377 3650
330 2377 3804
330 2377 3915
330 2377 3993
330 2377 4050
330 2377 4095
330 2815 0
330 2815 275
330 2815 576
330 2815 930
330 2815 1363
330 2815 1869
330 2815 2377
330 2815 2815
330 2815 3166
330 2815 3441
330 2815 3650
330 2815 3804
330 2815 3915
330 2815 3993
330 2815 4050
330 2815 4095
330 3166 0
330 3166 275
330 3166 576
330 3166 930
330 3166 1363
330 3166 1869
330 3166 2377
330 3166 2815
330 3166 3166
330 3166 3441
330 3166 3650
330 3166 3804
330 3166 3915
330 3166 3993
330 3166 4050
330 3166 4095
330 3441 0
330 3441 275
330 3441 576
330 3441 930
330 3441 1363
330 3441 1869
330 3441 2377
330 3441 2815
330 3441 3166
330 3441 3441
330 3441 3650
330 3441 3804
330 3441 3915
330 3441 3993
330 3441 4050
330 3441 4095
330 3650 0
330 3650 275
330 3650 576
330 3650 930
330 3650 1363
330 3650 1869
330 3650 2377
330 3650 2815
330 3650 3166
330 3650 3441
330 3650 3650
330 3650 3804
330 3650 3915
330 3650 3993
330 3650 4050
330 3650 4095
330 3804 0
330 3804 275
330 3804 576
330 3804 930
330 3804 1363
330 3804 1869
330 3804 2377
330 3804 2815
330 3804 3166
330 3804 3441
330 3804 3650
330 3804 3804
330 3804 3915
330 3804 3993
330 3804 4050
330 3804 4095
330 3915 0
330 3915 275
330 3915 576
330 3915 930
330 3915 1363
330 3915 1869
330 3915 2377
330 3915 2815
330 3915 3166
330 3915 3441
330 3915 3650
330 3915 3804
330 3915 3915
330 3915 3993
330 3915 4050
330 3915 4095
330 3993 0
330 3993 275
330 3993 576
330 3993 930
330 3993 1363
330 3993 1869
330 3993 2377
330 3993 2815
330 3993 3166
330 3993 3441
330 3993 3650
330 3993 3804
330 3993 3915
330 3993 3993
330 3993 4050
330 3993 4095
330 4050 0
330 4050 275
330 4050 576
330 4050 930
330 4050 1363
330 4050 1869
330 4050 2377
330 4050 2815
330 4050 3166
330 4050 3441
330 4050 3650
330 4050 3804
330 4050 3915
330 4050 3993
330 4050 4050
330 4050 4095
330 4095 0
330 4095 275
330 4095 576
330 4095 930
330 4095 1363
330 4095 1869
330 4095 2377
330 4095 2815
330 4095 3166
330 4095 3441
330 4095 3650
330 4095 3804
330 4095 3915
330 4095 3993
330 4095 4050
330 4095 4095
701 0 0
701 0 275
701 0 576
701 0 930
701 0 1363
701 0 1869
701 0 2377
701 0 2815
701 0 3166
701 0 3441
701 0 3650
701 0 3804
701 0 3915
701 0 3993
701 0 4050
701 0 4095
701 275 0
701 275 275
701 275 576
701 275 930
701 275 1363
701 275 1869
701 275 2377
701 275 2815
701 275 3166
701 275 3441
701 275 3650
701 275 3804
701 275 3915
701 275 3993
701 275 4050
701 275 4095
701 576 0
701 576 275
701 576 576
701 576 930
701 576 1363
701 576 1869
701 576 2377
701 576 2815
701 576 3166
701 576 3441
701 576 3650
701 576 3804
701 576 3915
701 576 3993
701 576 4050
701 576 4095
701 930 0
701 930 275
701 930 576
701 930 930
701 930 1363
701 930 1869
701 930 2377
701 930 2815
701 930 3166
701 930 3441
701 930 3650
701 930 3804
701 930 3915
701 930 3993
701 930 4050
701 930 4095
701 1363 0
701 1363 275
701 1363 576
701 1363 930
701 1363 1363
701 1363 1869
701 1363 2377
701 1363 2815
701 1363 3166
701 1363 3441
701 1363 3650
701 1363 3804
701 1363 3915
701 1363 3993
701 1363 4050
701 1363 4095
701 1869 0
701 1869 275
701 1869 576
701 1869 930
701 1869 1363
701 1869 1869
701 1869 2377
701 1869 2815
701 1869 3166
701 1869 3441
701 1869 3650
701 1869 3804
701 1869 3915
701 1869 3993
701 1869 4050
701 1869 4095
701 2377 0
701 2377 275
701 2377 576
701 2377 930
701 2377 1363
701 2377 1869
701 2377 2377
701 2377 2815
701 2377 3166
701 2377 3441
701 2377 3650
701 2377 3804
701 2377 3915
701 2377 3993
701 2377 4050
701 2377 4095
701 2815 0
701 2815 275
701 2815 576
701 2815 930
701 2815 1363
701 2815 1869
701 2815 2377
701 2815 2815
701 2815 3166
701 2815 3441
701 2815 3650
701 2815 3804
701 2815 3915
701 2815 3993
701 2815 4050
701 2815 4095
701 3166 0
701 3166 275
701 3166 576
701 3166 930
701 3166 1363
701 3166 1869
701 3166 2377
701 3166 2815
701 3166 3166
701 3166 3441
701 3166 3650
701 3166 3804
701 3166 3915
701 3166 3993
701 3166 4050
701 3166 4095
701 3441 0
701 3441 275
701 3441 576
701 3441 930
701 3441 1363
701 3441 1869
701 3441 2377
701 3441 2815
701 3441 3166
701 3441 3441
701 3441 3650
701 3441 3804
701 3441 3915
701 3441 3993
701 3441 4050
701 3441 4095
701 3650 0
701 3650 275
701 3650 576
701 3650 930
701 3650 1363
701 3650 1869
701 3650 2377
701 3650 2815
701 3650 3166
701 3650 3441
701 3650 3650
701 3650 3804
701 3650 3915
701 3650 3993
701 3650 4050
701 3650 4095
701 3804 0
701 3804 275
701 3804 576
701 3804 930
701 3804 1363
701 3804 1869
701 3804 2377
701 3804 2815
701 3804 3166
701 3804 3441
701 3804 3650
701 3804 3804
701 3804 3915
701 3804 3993
701 3804 4050
701 3804 4095
701 3915 0
701 3915 275
701 3915 576
701 3915 930
701 3915 1363
701 3915 1869
701 3915 2377
701 3915 2815
701 3915 3166
701 3915 3441
701 3915 3650
701 3915 3804
701 3915 3915
701 3915 3993
701 3915 4050
701 3915 4095
701 3993 0
701 3993 275
701 3993 576
701 3993 930
701 3993 1363
701 3993 1869
701 3993 2377
701 3993 2815
701 3993 3166
701 3993 3441
701 3993 3650
701 3993 3804
701 3993 3915
701 3993 3993
701 3993 4050
701 3993 4095
701 4050 0
701 4050 275
701 4050 576
701 4050 930
701 4050 1363
701 4050 1869
701 4050 2377
701 4050 2815
701 4050 3166
701 4050 3441
701 4050 3650
701 4050 3804
701 4050 3915
701 4050 3993
701 4050 4050
701 4050 4095
701 4095 0
701 4095 275
701 4095 576
701 4095 930
701 4095 1363
701 4095 1869
701 4095 2377
701 4095 2815
701 4095 3166
701 4095 3441
701 4095 3650
701 4095 3804
701 4095 3915
701 4095 3993
701 4095 4050
701 4095 4095
1153 0 0
1153 0 275
1153 0 576
1153 0 930
1153 0 1363
1153 0 1869
1153 0 2377
1153 0 2815
1153 0 3166
1153 0 3441
1153 0 3650
1153 0 3804
1153 0 3915
1153 0 3993
1153 0 4050
1153 0 4095
1153 275 0
1153 275 275
1153 275 576
1153 275 930
1153 275 1363
1153 275 1869
1153 275 2377
1153 275 2815
1153 275 3166
1153 275 3441
1153 275 3650
1153 275 3804
1153 275 3915
1153 275 3993
1153 275 4050
1153 275 4095
1153 576 0
1153 576 275
1153 576 576
1153 576 930
1153 576 1363
1153 576 1869
1153 576 2377
1153 576 2815
1153 576 3166
1153 576 3441
1153 576 3650
1153 576 3804
1153 576 3915
1153 576 3993
1153 576 4050
1153 576 4095
1153 930 0
1153 930 275
1153 930 576
1153 930 930
1153 930 1363
1153 930 1869
1153 930 2377
1153 930 2815
1153 930 3166
1153 930 3441
1153 930 3650
1153 930 3804
1153 930 3915
1153 930 3993
1153 930 4050
1153 930 4095
1153 1363 0
1153 1363 275
1153 1363 576
1153 1363 930
1153 1363 1363
1153 1363 1869
1153 1363 2377
1153 1363 2815
1153 1363 3166
1153 1363 3441
1153 1363 3650
1153 1363 3804
1153 1363 3915
1153 1363 3993
1153 1363 4050
1153 1363 4095
1153 1869 0
1153 1869 275
1153 1869 576
1153 1869 930
1153 1869 1363
1153 1869 1869
1153 1869 2377
1153 1869 2815
1153 1869 3166
1153 1869 3441
1153 1869 3650
1153 1869 3804
1153 1869 3915
1153 1869 3993
1153 1869 4050
1153 1869 4095
1153 2377 0
1153 2377 275
1153 2377 576
1153 2377 930
1153 2377 1363
1153 2377 1869
1153 2377 2377
1153 2377 2815
1153 2377 3166
1153 2377 3441
1153 2377 3650
1153 2377 3804
1153 2377 3915
1153 2377 3993
1153 2377 4050
1153 2377 4095
1153 2815 0
1153 2815 275
1153 2815 576
1153 2815 930
1153 2815 1363
1153 2815 1869
1153 2815 2377
1153 2815 2815
1153 2815 3166
1153 2815 3441
1153 2815 3650
1153 2815 3804
1153 2815 3915
1153 2815 3993
1153 2815 4050
1153 2815 4095
1153 3166 0
1153 3166 275
1153 3166 576
1153 3166 930
