app/src/assets/luts/standard_warm.3dl
#Created by: Adobe Photoshop Export Color Lookup Plugin
#Description: 3d-garden-screenshot-1748162883752.png
0 205 409 614 818 1023
0 0 0
0 0 930
0 0 2377
0 0 3441
0 0 3915
0 0 4095
0 930 0
0 930 930
0 930 2377
0 930 3441
0 930 3915
0 930 4095
0 2377 0
0 2377 930
0 2377 2377
0 2377 3441
0 2377 3915
0 2377 4095
0 3441 0
0 3441 930
0 3441 2377
0 3441 3441
0 3441 3915
0 3441 4095
0 3915 0
0 3915 930
0 3915 2377
0 3915 3441
0 3915 3915
0 3915 4095
0 4095 0
0 4095 930
0 4095 2377
0 4095 3441
0 4095 3915
0 4095 4095
1153 0 0
1153 0 930
1153 0 2377
1153 0 3441
1153 0 3915
1153 0 4095
1153 930 0
1153 930 930
1153 930 2377
1153 930 3441
1153 930 3915
1153 930 4095
1153 2377 0
1153 2377 930
1153 2377 2377
1153 2377 3441
1153 2377 3915
1153 2377 4095
1153 3441 0
1153 3441 930
1153 3441 2377
1153 3441 3441
1153 3441 3915
1153 3441 4095
1153 3915 0
1153 3915 930
1153 3915 2377
1153 3915 3441
1153 3915 3915
1153 3915 4095
1153 4095 0
1153 4095 930
1153 4095 2377
1153 4095 3441
1153 4095 3915
1153 4095 4095
2755 0 0
2755 0 930
2755 0 2377
2755 0 3441
2755 0 3915
2755 0 4095
2755 930 0
2755 930 930
2755 930 2377
2755 930 3441
2755 930 3915
2755 930 4095
2755 2377 0
2755 2377 930
2755 2377 2377
2755 2377 3441
2755 2377 3915
2755 2377 4095
2755 3441 0
2755 3441 930
2755 3441 2377
2755 3441 3441
2755 3441 3915
2755 3441 4095
2755 3915 0
2755 3915 930
2755 3915 2377
2755 3915 3441
2755 3915 3915
2755 3915 4095
2755 4095 0
2755 4095 930
2755 4095 2377
2755 4095 3441
2755 4095 3915
2755 4095 4095
3611 0 0
3611 0 930
3611 0 2377
3611 0 3441
3611 0 3915
3611 0 4095
3611 930 0
3611 930 930
3611 930 2377
3611 930 3441
3611 930 3915
3611 930 4095
3611 2377 0
3611 2377 930
3611 2377 2377
3611 2377 3441
3611 2377 3915
3611 2377 4095
3611 3441 0
3611 3441 930
3611 3441 2377
3611 3441 3441
3611 3441 3915
3611 3441 4095
3611 3915 0
3611 3915 930
3611 3915 2377
3611 3915 3441
3611 3915 3915
3611 3915 4095
3611 4095 0
3611 4095 930
3611 4095 2377
3611 4095 3441
3611 4095 3915
3611 4095 4095
3955 0 0
3955 0 930
3955 0 2377
3955 0 3441
3955 0 3915
3955 0 4095
3955 930 0
3955 930 930
3955 930 2377
3955 930 3441
3955 930 3915
3955 930 4095
3955 2377 0
3955 2377 930
3955 2377 2377
3955 2377 3441
3955 2377 3915
3955 2377 4095
3955 3441 0
3955 3441 930
3955 3441 2377
3955 3441 3441
3955 3441 3915
3955 3441 4095
3955 3915 0
3955 3915 930
3955 3915 2377
3955 3915 3441
3955 3915 3915
3955 3915 4095
3955 4095 0
3955 4095 930
3955 4095 2377
3955 4095 3441
3955 4095 3915
3955 4095 4095
4095 0 0
4095 0 930
4095 0 2377
4095 0 3441
4095 0 3915
4095 0 4095
4095 930 0
4095 930 930
4095 930 2377
4095 930 3441
4095 930 3915
4095 930 4095
4095 2377 0
4095 2377 930
4095 2377 2377
4095 2377 3441
4095 2377 3915
4095 2377 4095
4095 3441 0
4095 3441 930
4095 3441 2377
4095 3441 3441
4095 3441 3915
4095 3441 4095
4095 3915 0
4095 3915 930
4095 3915 2377
4095 3915 3441
4095 3915 3915
4095 3915 4095
4095 4095 0
4095 4095 930
4095 4095 2377
4095 4095 3441
4095 4095 3915
4095 4095 4095
